src/components/00-materials/images-raw/Coffee Machine.svg

<svg width="96" height="96" viewBox="0 0 96 96" fill="none" xmlns="http://www.w3.org/2000/svg">
<path d="M59.6 67.45V68.17C59.5884 68.5925 59.4934 69.0085 59.3206 69.3941C59.1478 69.7798 58.9005 70.1276 58.593 70.4175C58.2855 70.7073 57.9237 70.9336 57.5285 71.0834C57.1333 71.2331 56.7124 71.3033 56.29 71.29H39.19C38.3376 71.3142 37.5104 70.9994 36.8899 70.4144C36.2693 69.8295 35.9062 69.0223 35.88 68.17V52.91H59.6V55.82M25 15H71C73.6522 15 76.1957 16.0536 78.0711 17.9289C79.9464 19.8043 81 22.3478 81 25V41.19H15V25C15 22.3478 16.0536 19.8043 17.9289 17.9289C19.8043 16.0536 22.3479 15 25 15V15ZM77.79 80.99H18.21C17.7876 80.99 17.3694 80.9066 16.9793 80.7447C16.5892 80.5828 16.2349 80.3454 15.9367 80.0463C15.6385 79.7471 15.4022 79.3921 15.2415 79.0015C15.0808 78.6109 14.9987 78.1924 15 77.77V71.32H81V77.77C81 78.6213 80.6618 79.4378 80.0598 80.0398C79.4578 80.6418 78.6414 80.98 77.79 80.98V80.99Z" stroke="#00008F" stroke-width="2" stroke-linecap="round" stroke-linejoin="round"/>
<path d="M22.73 41.22H73.26V71.33H22.73V41.22Z" stroke="#00008F" stroke-width="2" stroke-linecap="round" stroke-linejoin="round"/>
<path d="M73.01 32.47H64.76M39.23 41.22H56.76V47.07H39.23V41.22ZM59.6 59.15V55.82C60.3988 55.7626 61.2008 55.8704 61.9561 56.1366C62.7113 56.4028 63.4037 56.8218 63.9899 57.3674C64.5761 57.913 65.0436 58.5735 65.3633 59.3077C65.683 60.042 65.8479 60.8342 65.8479 61.635C65.8479 62.4358 65.683 63.2281 65.3633 63.9623C65.0436 64.6965 64.5761 65.3571 63.9899 65.9026C63.4037 66.4482 62.7113 66.8672 61.9561 67.1334C61.2008 67.3997 60.3988 67.5074 59.6 67.45V57.76V59.15ZM23.51 23.26V32.95V23.26ZM31.76 23.26V32.95V23.26ZM73.01 23.74H64.76H73.01Z" stroke="#00008F" stroke-width="2" stroke-linecap="round" stroke-linejoin="round"/>
<path d="M48.26 34.8901C52.2475 34.8901 55.48 31.8501 55.48 28.1001C55.48 24.35 52.2475 21.3101 48.26 21.3101C44.2725 21.3101 41.04 24.35 41.04 28.1001C41.04 31.8501 44.2725 34.8901 48.26 34.8901Z" stroke="#00008F" stroke-width="2" stroke-linecap="round" stroke-linejoin="round"/>
</svg>

<svg width="96" height="96" viewBox="0 0 96 96" fill="none" xmlns="http://www.w3.org/2000/svg"><path d="M59.6 67.45v.72a3.209 3.209 0 01-3.31 3.12h-17.1a3.22 3.22 0 01-3.31-3.12V52.91H59.6v2.91M25 15h46a10 10 0 0110 10v16.19H15V25a10 10 0 0110-10v0zm52.79 65.99H18.21A3.21 3.21 0 0115 77.77v-6.45h66v6.45a3.21 3.21 0 01-3.21 3.21v.01z" stroke="#00008F" stroke-width="2" stroke-linecap="round" stroke-linejoin="round"/><path d="M22.73 41.22h50.53v30.11H22.73V41.22z" stroke="#00008F" stroke-width="2" stroke-linecap="round" stroke-linejoin="round"/><path d="M73.01 32.47h-8.25m-25.53 8.75h17.53v5.85H39.23v-5.85zM59.6 59.15v-3.33a5.83 5.83 0 110 11.63v-9.69 1.39zM23.51 23.26v9.69-9.69zm8.25 0v9.69-9.69zm41.25.48h-8.25 8.25zM48.26 34.89c3.988 0 7.22-3.04 7.22-6.79s-3.232-6.79-7.22-6.79c-3.987 0-7.22 3.04-7.22 6.79s3.233 6.79 7.22 6.79z" stroke="#00008F" stroke-width="2" stroke-linecap="round" stroke-linejoin="round"/></svg>
